build/bank/SBP.svg

<svg xmlns="http://www.w3.org/2000/svg" fill="none" viewBox="0 0 40 40" focusable="false"><path d="M0 0H40V40H0z"/><rect width="38" height="27.444" x="1" y="7" fill="#F6F6F6" rx="4"/><path fill="#5B57A2" fill-rule="evenodd" d="M11.3654 14.8882 13.8223 19.2364 13.8223 21.8875 11.3694 26.2272 11.3654 14.8882ZM20.7963 17.6544 23.0976 16.2573 27.8064 16.2538 20.7963 20.5075 20.7963 17.6544Z"/><path fill="#D90751" fill-rule="evenodd" d="M20.7963 17.6544L23.0976 16.2573L27.8064 16.2538L20.7963 20.5075L20.7963 17.6544Z"/><path fill="#5B57A2" fill-rule="evenodd" d="M20.7838 14.8631L20.7965 20.6189L18.3347 19.1212L18.3347 10.516L20.7838 14.8631Z"/><path fill="#FAB718" fill-rule="evenodd" d="M20.7838 14.8631L20.7965 20.6189L18.3347 19.1212L18.3347 10.516L20.7838 14.8631Z"/><path fill="#5B57A2" fill-rule="evenodd" d="M27.8064 16.2538L23.0976 16.2573L20.7838 14.8631L18.3347 10.516L27.8064 16.2538Z"/><path fill="#ED6F26" fill-rule="evenodd" d="M27.8064 16.2538L23.0976 16.2573L20.7838 14.8631L18.3347 10.516L27.8064 16.2538Z"/><path fill="#5B57A2" fill-rule="evenodd" d="M20.7963 26.2519L20.7963 23.4588L18.3347 21.9895L18.3351 30.6023L20.7963 26.2519Z"/><path fill="#63B22F" fill-rule="evenodd" d="M20.7963 26.2519L20.7963 23.4588L18.3347 21.9895L18.3351 30.6023L20.7963 26.2519Z"/><path fill="#5B57A2" fill-rule="evenodd" d="M23.0916 24.8673L13.8223 19.2364L11.3654 14.8882L27.7969 24.8619L23.0916 24.8673Z"/><path fill="#1487C9" fill-rule="evenodd" d="M23.0916 24.8673L13.8223 19.2364L11.3654 14.8882L27.7969 24.8619L23.0916 24.8673Z"/><path fill="#5B57A2" fill-rule="evenodd" d="M18.3351 30.6023L20.7963 26.2519L23.0916 24.8673L27.7969 24.8619L18.3351 30.6023Z"/><path fill="#017F36" fill-rule="evenodd" d="M18.3351 30.6023L20.7963 26.2519L23.0916 24.8673L27.7969 24.8619L18.3351 30.6023Z"/><path fill="#5B57A2" fill-rule="evenodd" d="M11.3694 26.2272L18.3538 21.9892L16.0051 20.5623L13.8223 21.8875L11.3694 26.2272Z"/><path fill="#984995" fill-rule="evenodd" d="M11.3694 26.2272L18.3538 21.9892L16.0051 20.5623L13.8223 21.8875L11.3694 26.2272Z"/></svg>

<svg xmlns="http://www.w3.org/2000/svg" fill="none" viewBox="0 0 40 40" focusable="false"><rect width="38" height="27.444" x="1" y="7" fill="#F7F7F7" rx="4"/><path fill="#5B57A2" fill-rule="evenodd" d="m11.36 14.88 2.46 4.35v2.65l-2.46 4.34z"/><path fill="#D90751" fill-rule="evenodd" d="m20.79 17.65 2.3-1.4h4.71l-7.01 4.25z"/><path fill="#FAB718" fill-rule="evenodd" d="m20.78 14.86.01 5.75-2.46-1.49v-8.61z"/><path fill="#ED6F26" fill-rule="evenodd" d="M27.8 16.25h-4.71l-2.31-1.39-2.45-4.35z"/><path fill="#63B22F" fill-rule="evenodd" d="M20.79 26.25v-2.8l-2.46-1.47v8.62z"/><path fill="#1487C9" fill-rule="evenodd" d="m23.09 24.86-9.27-5.63-2.46-4.35 16.43 9.98z"/><path fill="#017F36" fill-rule="evenodd" d="m18.33 30.6 2.46-4.35 2.3-1.39h4.7z"/><path fill="#984995" fill-rule="evenodd" d="m11.36 26.22 6.99-4.24L16 20.56l-2.18 1.32z"/></svg>
